docs/.gitbook/assets/icon-minimize-16@light.svg

<svg width="32" height="32" viewBox="0 0 16 16" fill="none" xmlns="http://www.w3.org/2000/svg">
<rect x="0" y="0" width="16" height="16" fill="#fff"/>
<path fill-rule="evenodd" clip-rule="evenodd" d="M5.25 1C5.66421 1 6 1.33579 6 1.75V3.25C6 4.76878 4.76878 6 3.25 6H1.75C1.33579 6 1 5.66421 1 5.25C1 4.83579 1.33579 4.5 1.75 4.5H3.25C3.94036 4.5 4.5 3.94036 4.5 3.25V1.75C4.5 1.33579 4.83579 1 5.25 1ZM10.75 1C11.1642 1 11.5 1.33579 11.5 1.75V3.25C11.5 3.94036 12.0596 4.5 12.75 4.5H14.25C14.6642 4.5 15 4.83579 15 5.25C15 5.66421 14.6642 6 14.25 6H12.75C11.2312 6 10 4.76878 10 3.25V1.75C10 1.33579 10.3358 1 10.75 1ZM1 10.75C1 10.3358 1.33579 10 1.75 10H3.25C4.76878 10 6 11.2312 6 12.75V14.25C6 14.6642 5.66421 15 5.25 15C4.83579 15 4.5 14.6642 4.5 14.25V12.75C4.5 12.0596 3.94036 11.5 3.25 11.5H1.75C1.33579 11.5 1 11.1642 1 10.75ZM12.75 11.5C12.0596 11.5 11.5 12.0596 11.5 12.75V14.25C11.5 14.6642 11.1642 15 10.75 15C10.3358 15 10 14.6642 10 14.25V12.75C10 11.2312 11.2312 10 12.75 10H14.25C14.6642 10 15 10.3358 15 10.75C15 11.1642 14.6642 11.5 14.25 11.5H12.75Z" fill="#000"/>
</svg>

<svg xmlns="http://www.w3.org/2000/svg" width="32" height="32" fill="none" viewBox="0 0 16 16"><path fill="#fff" d="M0 0h16v16H0z"/><path fill="#000" fill-rule="evenodd" d="M5.25 1a.75.75 0 0 1 .75.75v1.5A2.75 2.75 0 0 1 3.25 6h-1.5a.75.75 0 0 1 0-1.5h1.5c.69 0 1.25-.56 1.25-1.25v-1.5A.75.75 0 0 1 5.25 1m5.5 0a.75.75 0 0 1 .75.75v1.5c0 .69.56 1.25 1.25 1.25h1.5a.75.75 0 0 1 0 1.5h-1.5A2.75 2.75 0 0 1 10 3.25v-1.5a.75.75 0 0 1 .75-.75M1 10.75a.75.75 0 0 1 .75-.75h1.5A2.75 2.75 0 0 1 6 12.75v1.5a.75.75 0 0 1-1.5 0v-1.5c0-.69-.56-1.25-1.25-1.25h-1.5a.75.75 0 0 1-.75-.75m11.75.75c-.69 0-1.25.56-1.25 1.25v1.5a.75.75 0 0 1-1.5 0v-1.5A2.75 2.75 0 0 1 12.75 10h1.5a.75.75 0 0 1 0 1.5z" clip-rule="evenodd"/></svg>
